X: 11372
T: CRUISKEEN LAWN
O: Irish air.
Q: "Slow."
%R: air, march, reel
B: W. Hamilton "Universal Tune-Book" Vol. 1 Glasgow 1844 p.137 #2
S: http://imslp.org/wiki/Hamilton's_Universal_Tune-Book_(Various)
Z: 2016 John Chambers <jc:trillian.mit.edu>
M: C
L: 1/8
K: Bm
% - - - - - - - - - - - - - - - - - - - - - - - - -
F2 |\
BFBc d2cd | edcB B^AGF |\
B2Bc dcde | f6 :|\
e2 |\
fddf a2gf | ecAc e2d>e |\
f>de>c f2F2 | B2B>c d3e |\
fdec f2F^A | B6 |]
% - - - - - - - - - - - - - - - - - - - - - - - - -

%%sep 1 1 500
%%sep 1 1 500

